packages/elvis-assets-icons/icons/svg/src/add_powermeter-color.svg

<svg width="24" height="24" viewBox="0 0 24 24" fill="none" xmlns="http://www.w3.org/2000/svg">
<g clip-path="url(#clip0)">
<path d="M2.25879 21.0028C1.01779 21.0028 0.00878906 19.9938 0.00878906 18.7528V2.25281C0.00878906 1.01181 1.01779 0.00280762 2.25879 0.00280762H20.2588C21.4998 0.00280762 22.5088 1.01181 22.5088 2.25281L22.5088 9.25C22.5088 9.664 22.1728 10 21.7588 10C21.3448 10 21.0088 9.664 21.0088 9.25L21.0088 6.00281H1.50879V18.7528C1.50879 19.1668 1.84479 19.5028 2.25879 19.5028H8.75C9.164 19.5028 9.5 19.8388 9.5 20.2528C9.5 20.6668 9.164 21.0028 8.75 21.0028H2.25879ZM21.0088 4.50281V2.25281C21.0088 1.83881 20.6728 1.50281 20.2588 1.50281H2.25879C1.84479 1.50281 1.50879 1.83881 1.50879 2.25281V4.50281H21.0088Z" fill="black"/>
<path d="M17.2588 24.0029C13.5368 24.0029 10.5088 20.9749 10.5088 17.2529C10.5088 13.5309 13.5368 10.5029 17.2588 10.5029C20.9808 10.5029 24.0088 13.5309 24.0088 17.2529C24.0088 20.9749 20.9808 24.0029 17.2588 24.0029ZM17.2588 12.0029C14.3638 12.0029 12.0088 14.3579 12.0088 17.2529C12.0088 20.1479 14.3638 22.5029 17.2588 22.5029C20.1538 22.5029 22.5088 20.1479 22.5088 17.2529C22.5088 14.3579 20.1538 12.0029 17.2588 12.0029Z" fill="#29D305"/>
<path d="M17.2588 21.0029C16.8448 21.0029 16.5088 20.6669 16.5088 20.2529V18.0029H14.2588C13.8448 18.0029 13.5088 17.6669 13.5088 17.2529C13.5088 16.8389 13.8448 16.5029 14.2588 16.5029H16.5088V14.2529C16.5088 13.8389 16.8448 13.5029 17.2588 13.5029C17.6728 13.5029 18.0088 13.8389 18.0088 14.2529V16.5029H20.2588C20.6728 16.5029 21.0088 16.8389 21.0088 17.2529C21.0088 17.6669 20.6728 18.0029 20.2588 18.0029H18.0088V20.2529C18.0088 20.6669 17.6718 21.0029 17.2588 21.0029Z" fill="black"/>
<path d="M8.14041 12.6531H5.86898V11.3551H8.14041V8.32654H4.89551V9.30001H7.16694V10.3816H4.89551V13.6265H8.14041V12.6531Z" fill="black"/>
<path fill-rule="evenodd" clip-rule="evenodd" d="M9.65625 8.32654H12.9011V10.7181C12.5559 10.9438 12.2303 11.1973 11.9277 11.4753V11.3551H9.65625V10.3816H11.9277V9.30001H9.65625V8.32654ZM10.8875 12.6531H9.65625V13.6265H10.2997C10.4713 13.2864 10.668 12.9611 10.8875 12.6531Z" fill="black"/>
<path fill-rule="evenodd" clip-rule="evenodd" d="M15.391 9.673V9.30001H17.4461V8.32654H14.4175V9.95646C14.7327 9.84089 15.0577 9.74586 15.391 9.673Z" fill="black"/>
</g>
<defs>
<clipPath id="clip0">
<path d="M0 0H24V24H0V0Z" fill="white"/>
</clipPath>
</defs>
</svg>

<svg width="24" height="24" fill="none" xmlns="http://www.w3.org/2000/svg"><g clip-path="url(#clip0)"><path d="M2.259 21.003a2.252 2.252 0 01-2.25-2.25v-16.5a2.252 2.252 0 012.25-2.25h18a2.252 2.252 0 012.25 2.25V9.25a.75.75 0 01-1.5 0V6.003h-19.5v12.75c0 .414.336.75.75.75H8.75a.75.75 0 010 1.5H2.259zm18.75-16.5v-2.25a.75.75 0 00-.75-.75h-18a.75.75 0 00-.75.75v2.25h19.5z" fill="#000"/><path d="M17.259 24.003a6.758 6.758 0 01-6.75-6.75 6.758 6.758 0 016.75-6.75 6.758 6.758 0 016.75 6.75 6.758 6.758 0 01-6.75 6.75zm0-12a5.256 5.256 0 00-5.25 5.25 5.256 5.256 0 005.25 5.25 5.256 5.256 0 005.25-5.25 5.256 5.256 0 00-5.25-5.25z" fill="#29D305"/><path d="M17.259 21.003a.75.75 0 01-.75-.75v-2.25h-2.25a.75.75 0 010-1.5h2.25v-2.25a.75.75 0 011.5 0v2.25h2.25a.75.75 0 010 1.5h-2.25v2.25a.75.75 0 01-.75.75zM8.14 12.653H5.87v-1.298H8.14V8.327H4.896V9.3h2.27v1.082h-2.27v3.245H8.14v-.974z" fill="#000"/><path fill-rule="evenodd" clip-rule="evenodd" d="M9.656 8.327h3.245v1.801a8.035 8.035 0 00-1.57 1.227H9.656v-.973h2.272V9.3H9.656v-.973zm.627 4.326h-.627v.973h.088c.157-.337.338-.663.539-.973zM14.418 9.426a7.99 7.99 0 013.028-.414v-.685h-3.029v1.099z" fill="#000"/></g><defs><clipPath id="clip0"><path fill="#fff" d="M0 0h24v24H0z"/></clipPath></defs></svg>
